movekom_app/assets/icons/sol_nubes.svg

<svg height="63.59" viewBox="0 0 92.8 63.59" width="92.8" xmlns="http://www.w3.org/2000/svg"><path d="m24.273 63.858-11.817-.058c-5.5 0-9.966-4.743-9.966-10.6s4.462-10.6 9.966-10.6h.289c1.524-7.962 7.954-13.795 15.588-14.141m12.567 5.289a16.093 16.093 0 0 0 -11.864-5.3c-.236 0-.469 0-.7.014a25.876 25.876 0 0 1 8.956-11.919 14.561 14.561 0 0 0 -20.63-.643 16.911 16.911 0 0 0 -2.262 21.808m26.5-3.96a17.643 17.643 0 0 1 2.343 3.2h1.857c6.965.022 12.606 6.02 12.627 13.426 0 7.386-5.683 13.485-12.627 13.485h-20.827c.788.142 46.819 0 46.819 0l3.625.154c10.258 0 18.574-8.841 18.574-19.749s-8.316-19.75-18.574-19.75h-2.738a24.569 24.569 0 0 0 -15.735-11.914 23.282 23.282 0 0 0 -18.955 3.942m51.175 27.58c0-7.212-5.5-13.058-12.28-13.059m-69.042 11.379 5.086-3.43m30.735-30.555-4.041 4.748m-6.472-3.331 2.1-6m-9.383 5-.536-6.374m-9.463 3.054 3.01 5.546m-5.563 5.569-4.87-3.762m2.121 10.883-5.814-1.656m-.478 10.966 5.9-1.28" fill="none" stroke="#fff" stroke-linecap="round" stroke-linejoin="round" stroke-width="2" transform="translate(-1.49 -1.419)"/></svg>

<svg xmlns="http://www.w3.org/2000/svg" width="92.8" height="63.59" viewBox="0 0 92.8 63.59">
    <g id="prefix__Capa_2" data-name="Capa 2" transform="translate(1 1.081)">
        <g id="prefix__Capa_2-2" data-name="Capa 2">
            <path id="prefix__Trazado_641" d="M24.273 63.858L12.456 63.8c-5.5 0-9.966-4.743-9.966-10.6s4.462-10.6 9.966-10.6h.289c1.524-7.962 7.954-13.795 15.588-14.141M40.9 33.748a16.093 16.093 0 0 0-11.864-5.3c-.236 0-.469 0-.7.014a25.876 25.876 0 0 1 8.956-11.919 14.561 14.561 0 0 0-20.63-.643A16.911 16.911 0 0 0 14.4 37.708m26.5-3.96a17.643 17.643 0 0 1 2.343 3.2H45.1c6.965.022 12.606 6.02 12.627 13.426 0 7.386-5.683 13.485-12.627 13.485H24.273c.788.142 46.819 0 46.819 0l3.625.154c10.258 0 18.574-8.841 18.574-19.749s-8.316-19.75-18.574-19.75h-2.738A24.569 24.569 0 0 0 56.244 12.6a23.282 23.282 0 0 0-18.955 3.942m51.175 27.58c0-7.212-5.5-13.058-12.28-13.059M7.142 42.442l5.086-3.43M42.963 8.457l-4.041 4.748M32.45 9.874l2.1-6m-9.383 5L24.631 2.5m-9.463 3.054l3.01 5.546m-5.563 5.569l-4.87-3.762M9.866 23.79l-5.814-1.656M3.574 33.1l5.9-1.28" data-name="Trazado 641" transform="translate(-2.49 -2.5)" style="fill:none;stroke:#fff;stroke-linecap:round;stroke-linejoin:round;stroke-width:2px"/>
        </g>
    </g>
</svg>
